SVG_Azure_Grouped/Management/Sign In.svg

<?xml version="1.0" encoding="UTF-8" standalone="no"?>
<!-- Generated by Microsoft Visio, SVG Export Sign In.svg Page-1 -->

<svg
   xmlns:dc="http://purl.org/dc/elements/1.1/"
   xmlns:cc="http://creativecommons.org/ns#"
   xmlns:rdf="http://www.w3.org/1999/02/22-rdf-syntax-ns#"
   xmlns:svg="http://www.w3.org/2000/svg"
   xmlns="http://www.w3.org/2000/svg"
   xmlns:sodipodi="http://sodipodi.sourceforge.net/DTD/sodipodi-0.dtd"
   xmlns:inkscape="http://www.inkscape.org/namespaces/inkscape"
   width="0.74901772in"
   height="0.78749698in"
   viewBox="0 0 53.929036 56.700003"
   xml:space="preserve"
   class="st3"
   version="1.1"
   id="svg24"
   sodipodi:docname="Sign In.svg"
   style="font-size:12px;overflow:visible;color-interpolation-filters:sRGB;fill:none;fill-rule:evenodd;stroke-linecap:square;stroke-miterlimit:3"
   inkscape:version="0.92.5 (2060ec1f9f, 2020-04-08)"><metadata
   id="metadata30"><rdf:RDF><cc:Work
       rdf:about=""><dc:format>image/svg+xml</dc:format><dc:type
         rdf:resource="http://purl.org/dc/dcmitype/StillImage" /></cc:Work></rdf:RDF></metadata><defs
   id="defs28" /><sodipodi:namedview
   pagecolor="#ffffff"
   bordercolor="#666666"
   borderopacity="1"
   objecttolerance="10"
   gridtolerance="10"
   guidetolerance="10"
   inkscape:pageopacity="0"
   inkscape:pageshadow="2"
   inkscape:window-width="640"
   inkscape:window-height="480"
   id="namedview26"
   showgrid="false"
   inkscape:zoom="1.7272067"
   inkscape:cx="35.953931"
   inkscape:cy="22.966983"
   inkscape:window-x="0"
   inkscape:window-y="0"
   inkscape:window-maximized="0"
   inkscape:current-layer="svg24" />
	<style
   type="text/css"
   id="style2">
	<![CDATA[
		.st1 {fill:#0072c6;stroke:none;stroke-linecap:butt;stroke-width:11.7692}
		.st2 {fill:#57a300;stroke:none;stroke-linecap:butt;stroke-width:11.7692}
		.st3 {fill:none;fill-rule:evenodd;font-size:12px;overflow:visible;stroke-linecap:square;stroke-miterlimit:3}
	]]>
	</style>

	<g
   id="g22"
   transform="translate(-11.769519,-11.7643)">
		<title
   id="title4">Page-1</title>
		<g
   id="group12026-1"
   transform="translate(11.7692,-34.0157)">
			<title
   id="title6">Sign In.12026</title>
			<g
   id="group12027-2">
				<title
   id="title8">g8</title>
				<g
   id="shape12028-3"
   transform="translate(3.35198)">
					<title
   id="title10">path4</title>
					<path
   d="m 22.1,45.78 c 7.59,0 14.67,2.93 20.19,8.28 11.05,11.02 11.05,29.12 0,40.15 -5.35,5.34 -12.6,8.27 -20.19,8.27 -7.6,0 -14.68,-2.93 -20.2,-8.27 -1.9,-1.9 -1.9,-4.83 0,-6.72 1.9,-1.9 4.83,-1.9 6.73,0 3.63,3.61 8.29,5.68 13.47,5.68 5.17,0 9.84,-1.89 13.46,-5.51 7.42,-7.41 7.42,-19.47 0,-26.71 -3.62,-3.62 -8.46,-5.69 -13.46,-5.69 -5.01,0 -9.84,1.9 -13.47,5.52 -1.9,1.89 -4.83,1.89 -6.73,0 C 0,58.88 0,55.95 1.9,54.06 7.25,48.71 14.5,45.78 22.1,45.78 Z"
   class="st1"
   id="path12"
   inkscape:connector-curvature="0"
   style="fill:#0072c6;stroke:none;stroke-width:11.76920033;stroke-linecap:butt" />
				</g>
				<g
   id="shape12029-5"
   transform="translate(0,-15.8343)">
					<title
   id="title15">path6</title>
					<path
   d="M 28.51,86.66 19.04,76.63 h 7.54 l 12.75,12.92 -12.56,12.93 h -7.73 l 9.47,-9.84 H 1.76 A 1.75834,1.75521 0 0 1 0,90.89 v -2.47 c 0,-0.97 0.79,-1.76 1.76,-1.76 z"
   class="st2"
   id="path17"
   inkscape:connector-curvature="0"
   style="fill:#57a300;stroke:none;stroke-width:11.76920033;stroke-linecap:butt" />
				</g>
			</g>
		</g>
	</g>
</svg>

<?xml version="1.0" encoding="UTF-8" standalone="no"?>
<!DOCTYPE svg PUBLIC "-//W3C//DTD SVG 1.1//EN" "http://www.w3.org/Graphics/SVG/1.1/DTD/svg11.dtd">
<!-- Generated by Microsoft Visio, SVG Export Sign In.svg Page-1 -->
<svg xmlns="http://www.w3.org/2000/svg" xmlns:xlink="http://www.w3.org/1999/xlink" xmlns:ev="http://www.w3.org/2001/xml-events"
		width="1.07597in" height="1.4233in" viewBox="0 0 77.4695 102.478" xml:space="preserve" color-interpolation-filters="sRGB"
		class="st3">
	<style type="text/css">
	<![CDATA[
		.st1 {fill:#0072c6;stroke:none;stroke-linecap:butt;stroke-width:11.7692}
		.st2 {fill:#57a300;stroke:none;stroke-linecap:butt;stroke-width:11.7692}
		.st3 {fill:none;fill-rule:evenodd;font-size:12px;overflow:visible;stroke-linecap:square;stroke-miterlimit:3}
	]]>
	</style>

	<g>
		<title>Page-1</title>
		<g id="group11747-1" transform="translate(11.7692,-34.0157)">
			<title>Sign In.11747</title>
			<g id="group11748-2">
				<title>g8</title>
				<g id="shape11749-3" transform="translate(3.35198,1.42109E-14)">
					<title>path4</title>
					<path d="M22.1 45.78 C29.69 45.78 36.77 48.71 42.29 54.06 C53.34 65.08 53.34 83.18 42.29 94.21 C36.94 99.55 29.69
								 102.48 22.1 102.48 C14.5 102.48 7.42 99.55 1.9 94.21 C0 92.31 0 89.38 1.9 87.49 C3.8 85.59 6.73
								 85.59 8.63 87.49 C12.26 91.1 16.92 93.17 22.1 93.17 C27.27 93.17 31.94 91.28 35.56 87.66 C42.98
								 80.25 42.98 68.19 35.56 60.95 C31.94 57.33 27.1 55.26 22.1 55.26 C17.09 55.26 12.26 57.16 8.63 60.78
								 C6.73 62.67 3.8 62.67 1.9 60.78 C0 58.88 0 55.95 1.9 54.06 C7.25 48.71 14.5 45.78 22.1 45.78 Z"
							class="st1"/>
				</g>
				<g id="shape11750-5" transform="translate(2.8777E-13,-15.8343)">
					<title>path6</title>
					<path d="M28.51 86.66 L19.04 76.63 L26.58 76.63 L39.33 89.55 L26.77 102.48 L19.04 102.48 L28.51 92.64 L1.76 92.64
								 A1.75834 1.75521 0 0 1 -0 90.89 L0 88.42 C0 87.45 0.79 86.66 1.76 86.66 L28.51 86.66 Z"
							class="st2"/>
				</g>
			</g>
		</g>
	</g>
</svg>
